!!!!SEGMENT: pl-wtm--r-1572_stefani-jozef--marsz-zalobny.krn
!!!cenid: 18xx:2905
!!!COM: Stefani, Józef
!!!COM-rism: pe30024097
!!!CDT: 1800/04/16-1876/03/19
!!!CNT: Polish
!!!OTL: Marsz żałobny
!!!PDT: 1873
!!!AGN: Sacred; March
!!!SMS-siglum: PL-Wtm
!!!SMS-shelfmark: R 1572
!!!NIFC-rismID: 1001115424
!!!URL-scan: http://repozytorium.nifc.pl/skany/pl-wtm-nut--r1572--r1573
!!!ONB-nifc: UWAGA: skany 0003-0004. Druga kopia utworu posiada inną sygnaturę (nie trzeba jej odnotowywać)
!!!SMS-variant:
!!!SMS-altvar:
!!!OMD:Adagio.
**kern	**text	**dynam	**kern	**text	**dynam	**kern	**text	**dynam
*part3	*part3	*part3	*part2	*part2	*part2	*part1	*part1	*part1
*staff3	*staff3	*	*staff2	*staff2	*	*staff1	*staff1	*
*I"Baſso	*	*	*I"Tenore II	*	*	*I"Tenore Io.	*	*
*>[A,B,C,C,D,D,A,B,E]	*	*	*>[A,B,C,C,D,D,A,B,E]	*	*	*>[A,B,C,C,D,D,A,B,E]	*	*
*>A	*	*	*>A	*	*	*>A	*	*
*clefF4	*	*	*clefG2	*	*	*clefG2	*	*
*	*	*	*ITrd7c12	*	*	*ITrd7c12	*	*
*k[b-]	*	*	*k[b-]	*	*	*k[b-]	*	*
*M2/4	*	*	*M2/4	*	*	*M2/4	*	*
*all\right	*	*	*all\right	*	*	*all\right	*	*
*2\right	*	*	*2\right	*	*	*2\right	*	*
!	!	!	!	!	!	!LO:TX:t=P:problem:brak przenośnika oktawowego	!	!
!	!	!LO:DY:a	!LO:TX:t=P:problem:brak przenośnika oktawowego	!	!	!	!	!LO:DY:a
8.A\	.	f	8.A/	.	.	8.A/	Re-	f
16A\	.	.	16A/	.	.	16A/	-qui-	.
=1	=1	=1	=1	=1	=1	=1	=1	=1
4D\	.	.	4A/	.	.	4f\	-em	.
8.E\	.	.	8.A/	.	.	8.c#X\	Re-	.
16E\	.	.	16A/	.	.	16c#\	-qui-	.
=2	=2	=2	=2	=2	=2	=2	=2	=2
8F\	.	.	8A/	.	.	8d\	-em	.
8F\	.	.	8A/	.	.	8d\	ae-	.
8G\	.	.	8B-/	.	.	8e\	-ter-	.
8G\	.	.	8G/	.	.	8B-\	-nam	.
=3	=3	=3	=3	=3	=3	=3	=3	=3
8F\	.	.	8A/	.	.	8A/	do-	.
8F\	.	.	8A/	.	.	8d\	-na	.
8E\	.	.	8A/	.	.	8c#X\	e-	.
8F\	.	.	8A/	.	.	8d\	-is	.
=4	=4	=4	=4	=4	=4	=4	=4	=4
16C#X/	.	.	16A/	.	.	16e\	Do-	.
16D/	.	.	16A/	.	.	16f\	-mi-	.
!LO:TX:t=P:problem:łamanie linii w takcie	!	!	!LO:TX:t=P:problem:łamanie linii w takcie	!	!	!LO:TX:t=P:problem:łamanie linii w takcie	!	!
8C#/	.	.	8A/	.	.	8e\	-ne	.
!!LO:LB:g=original
8.A\	.	.	8.A/	.	.	8.A/	Re-	.
16A\	.	.	16A/	.	.	16A/	-qui-	.
=5	=5	=5	=5	=5	=5	=5	=5	=5
4D\	.	.	4A/	.	.	4f\	-em	.
8.AA/	.	.	8.c#X/	.	.	8.e\	Re-	.
16AA/	.	.	16c#/	.	.	16e\	-qui-	.
=6	=6	=6	=6	=6	=6	=6	=6	=6
8BB-/	.	.	8d\	.	.	8d\	-em	.
8BB-/	.	.	8d\	.	.	8d\	ae-	.
8GG/	.	.	8B-/	.	.	8e\	-ter-	.
8GG/	.	.	8G/	.	.	8B-\	-nam	.
=7	=7	=7	=7	=7	=7	=7	=7	=7
8AA/	.	.	8F/	.	.	8A\	do-	.
8AA/	.	.	8F/	.	.	8d\	-na	.
8AA/	.	.	8E/	.	.	8c#X\	e-	.
8AA/	.	.	8F/	.	.	8d\	-is	.
=8	=8	=8	=8	=8	=8	=8	=8	=8
16AA/	.	.	16A/	.	.	16f\	Do-	.
16C#X/	.	.	16G/	.	.	16e\	-mi-	.
!LO:TX:t=P:problem:wężowate segno na kresce	!	!	!LO:TX:t=P:problem:wężowate segno na kresce	!	!	!LO:TX:t=P:problem:wężowate segno na kresce	!	!
8D/	.	.	8F/	.	.	8d\	-ne.	.
!!LO:TX:t=[segno]
=||	=||	=||	=||	=||	=||	=||	=||	=||
*>B	*	*	*>B	*	*	*>B	*	*
4A\	.	.	4A^>/	Et	.	4r	.	.
!!LO:LB:g=original
=9	=9	=9	=9	=9	=9	=9	=9	=9
!	!	!	!LO:TX:a:i:t=e dolce	!	!LO:DY:a:t=p.	!	!	!
4A\	.	.	4B-/	lux	p	2r	.	.
(8G\L	.	.	4B-/	per-	.	.	.	.
8F\J)	.	.	.	.	.	.	.	.
=10	=10	=10	=10	=10	=10	=10	=10	=10
8E\	.	.	8B-/	-pe-	.	2r	.	.
8E\	.	.	8G/	-tu-	.	.	.	.
4E\	.	.	(8c/L	-a	.	.	.	.
.	.	.	8B-/J)	.	.	.	.	.
=11	=11	=11	=11	=11	=11	=11	=11	=11
!	!	!	!	!	!	!	!	!LO:DY:a
4F\	.	.	4A/	lu-	.	4A/	lu-	<
8E\	.	.	8G/	-ce-	.	8c\	-ce-	.
8E\	.	.	8G/	-at	.	8c\	-at	[
=12	=12	=12	=12	=12	=12	=12	=12	=12
!	!	!	!	!	!	!	!	!LO:DY:a
!	!	!	!	!	!	!	!	!LO:DY:a
4D\	.	.	4A/	e-	.	4f\	e-	f >
4BB-/	.	.	4B-/	-is	.	4d\	-is	.
=13	=13	=13	=13	=13	=13	=13	=13	=13
2C/	.	.	(>4.A/	lu-	.	(4.c\	lu-	]
.	.	.	16B-/LL	.	.	16d\LL	.	.
.	.	.	16A/JJ)	.	.	16c\JJ)	.	.
=14	=14	=14	=14	=14	=14	=14	=14	=14
4C/	.	.	4G/	-ce-	.	4B-/	-ce-	.
4C/	.	.	4F/	-at	.	4A/	-at	.
!!LO:LB:g=original
=15	=15	=15	=15	=15	=15	=15	=15	=15
!	!	!	!	!	!	!	!	!LO:DY:a
2C/	.	.	(>4F/	.	.	(>4.G/	e-	p
.	.	.	4E/)	.	.	.	.	.
.	.	.	.	.	.	8c\)	.	.
=16	=16	=16	=16	=16	=16	=16	=16	=16
4F\	.	.	4F/	.	.	4F/	-is,	.
!	!	!	!	!	!	!	!	!LO:DY:a
8.A\	.	.	8.A/	.	.	8.A/	Re-	f
16A\	.	.	16A/	.	.	16A/	-qui-	.
=17	=17	=17	=17	=17	=17	=17	=17	=17
4D\	.	.	4A/	.	.	4f\	-em	.
8.E\	.	.	8.A/	.	.	8.c#X\	Re-	.
16E\	.	.	16A/	.	.	16c#\	-qui-	.
=18	=18	=18	=18	=18	=18	=18	=18	=18
8F\	.	.	8A/	.	.	8d\	-em	.
8F\	.	.	8A/	.	.	8d\	ae-	.
8G\	.	.	8B-/	.	.	8e\	-ter-	.
8G\	.	.	8G/	.	.	8B-\	-nam	.
=19	=19	=19	=19	=19	=19	=19	=19	=19
8F\	.	.	8A/	.	.	8A/	do-	.
8F\	.	.	8A/	.	.	8d\	-na	.
8E\	.	.	8A/	.	.	8c#X\	e-	.
8F\	.	.	8A/	.	.	8d\	-is	.
!!LO:PB:g=original
=20	=20	=20	=20	=20	=20	=20	=20	=20
16C#X/	.	.	16A/	.	.	16e\	Do-	.
16D/	.	.	16A/	.	.	16f\	-mi-	.
8C#/	.	.	8A/	.	.	8e\	-ne	.
8.A\	.	.	8.A/	.	.	8.A/	Re-	.
16A\	.	.	16A/	.	.	16A/	-qui-	.
=21	=21	=21	=21	=21	=21	=21	=21	=21
4D\	.	.	4A/	.	.	4f\	-em	.
8.AA/	.	.	8.c#X/	.	.	8.e\	Re-	.
16AA/	.	.	16c#/	.	.	16e\	-qui-	.
=22	=22	=22	=22	=22	=22	=22	=22	=22
8BB-/	.	.	8d\	.	.	8d\	-em	.
8BB-/	.	.	8d\	.	.	8d\	ae-	.
8GG/	.	.	8B-/	.	.	8e\	-ter-	.
8GG/	.	.	8G/	.	.	8B-\	-nam	.
=23	=23	=23	=23	=23	=23	=23	=23	=23
8AA/	.	.	8F/	.	.	8A\	do-	.
8AA/	.	.	8F/	.	.	8d\	-na	.
8AA/	.	.	8E/	.	.	8c#X\	e-	.
8AA/	.	.	8F/	.	.	8d\	-is	.
=24	=24	=24	=24	=24	=24	=24	=24	=24
16AA/	.	.	16A/	.	.	16f\	Do-	.
16C#X/	.	.	16G/	.	.	16e\	-mi-	.
!	!	!	!	!	!	!LO:TX:b:i:t=fine	!	!
!	!	!	!	!	!	!LO:TX:t=P:problem:fermata jedynie nad najwyższym systemem	!	!
8D\	.	.	8F/	.	.	8d\	-ne	.
*kcancel	*	*	*kcancel	*	*	*kcancel	*	*
!!LO:LB:g=original
==;	==	==	==;	==	==	==;	==	==
*>C	*	*	*>C	*	*	*>C	*	*
*k[f#c#]	*	*	*k[f#c#]	*	*	*k[f#c#]	*	*
!	!	!	!	!	!	!LO:TX:a:i:t=Trio.dolce	!	!
4A\	.	.	4A/	.	.	4A/	Te	.
=25	=25	=25	=25	=25	=25	=25	=25	=25
8.D\	.	.	8.A/	.	.	8.f#\	de-	.
16D\	.	.	16A/	.	.	16f#\	-cet	.
8D\	.	.	8G/	.	.	8e\	him-	.
8D\	.	.	8A/	.	.	8f#\	-nus	.
=26	=26	=26	=26	=26	=26	=26	=26	=26
4D\	.	.	4F#/	.	.	4d\	De-	.
8D\	.	.	8F#/	.	.	8d\	-us	.
8F#\	.	.	8A/	.	.	8c#\	in	.
=27	=27	=27	=27	=27	=27	=27	=27	=27
2G\	.	.	(>4.G/	.	.	(4.B\	si-	.
.	.	.	8B/)	.	.	8d\)	.	.
=28	=28	=28	=28	=28	=28	=28	=28	=28
4D\	.	.	4F#/	.	.	4A/	-on	.
4D\	.	.	4F#/	.	.	4A/	Et	.
=29	=29	=29	=29	=29	=29	=29	=29	=29
8D\	.	.	8E/	.	.	8G/	ti-	.
16C#/	.	.	16E/	.	.	16G/	-bi	.
16BB/	.	.	16E/	.	.	16G/	re-	.
8C#/	.	.	8E/	.	.	8A/	-de-	.
8C#/	.	.	8E/	.	.	8G/	-tur	.
!!LO:LB:g=original
=30	=30	=30	=30	=30	=30	=30	=30	=30
4D\	.	.	4F#/	.	.	8F#/L	vo-	.
.	.	.	.	.	.	8A/J	.	.
8D\	.	.	8F#/	.	.	8d\	-tum	.
8D\	.	.	8A/	.	.	8f#\	in	.
=31	=31	=31	=31	=31	=31	=31	=31	=31
4E\	.	.	4G#X/	.	.	4e\	ie-	.
8.E\	.	.	8.G#/	.	.	8.e\	-ru-	.
16E\	.	.	16G#/	.	.	16d\	-sa-	.
=32	=32	=32	=32	=32	=32	=32	=32	=32
4A\	.	.	4A/	.	.	4c#\	-lem	.
=:|!|:	=	=	=:|!|:	=	=	=:|!|:	=	=
*>D	*	*	*>D	*	*	*>D	*	*
4G\	.	.	4A/	.	.	4c#\	Ex	.
=33	=33	=33	=33	=33	=33	=33	=33	=33
4F#\	.	.	4A/	.	.	4d\	au-	.
8C#/	.	.	8A/	.	.	8e\	-di	.
8C#/	.	.	8A/	.	.	8e\	o-	.
=34	=34	=34	=34	=34	=34	=34	=34	=34
8D\	.	.	8A/	.	.	8f#\	-ra-	.
8D\	.	.	8A/	.	.	8f#\	-ti-	.
8D\	.	.	8F#/	.	.	8d\	-o-	.
8F#\	.	.	8A/	.	.	8c#\	-nem	.
=35	=35	=35	=35	=35	=35	=35	=35	=35
4G\	me-	.	4G/	.	.	4B\	me-	.
4F#\	-am	.	4A/	.	.	4d#X\	-am	.
!!LO:LB:g=original
=36	=36	=36	=36	=36	=36	=36	=36	=36
4E\	ad	.	4G/	.	.	4e\	ad	.
4GG/	te	.	4G/	.	.	4B\	te	.
=37	=37	=37	=37	=37	=37	=37	=37	=37
4AA/	ad	.	4F#/	.	.	4A\	ad	.
4AA/	te	.	4F#/	.	.	4d\	te	.
=38	=38	=38	=38	=38	=38	=38	=38	=38
8AA/	o-	.	8F#/	.	.	8d\	o-	.
!	!	!	!	!	!	!	!	!LO:DY:a
.	.	.	(8qG/	.	.	8qe/	.	<
8AA/	-mnis	.	8F#/)	.	.	8d\	-mnis	.
8AA/	ca-	.	8E#X/	.	.	8c#\	ca-	.
8AA/	-ro	.	8F#/	.	.	8d\	-ro	.
=39	=39	=39	=39	=39	=39	=39	=39	=39
!	!	!	!	!	!	!	!	!LO:DY:a
4.AA/	ve-	.	4.A/	.	.	4.f#\	ve-	[>
8C#/	-ni-	.	8G/	.	.	8e\	-ni-	]
=	=	=	=	=	=	=	=	=
!	!	!	!	!	!	!LO:TX:b:i:t=Marsz da capo \nal fine e poi\nla Coda.	!	!
4D\	-et,	.	4F#/	.	.	4d\	-et.	.
*Xkcancel	*	*	*Xkcancel	*	*	*Xkcancel	*	*
!!LO:PB:g=original
=40:|!	=40:|!	=40:|!	=40:|!	=40:|!	=40:|!	=40:|!	=40:|!	=40:|!
*>E	*	*	*>E	*	*	*>E	*	*
*k[b-]	*	*	*k[b-]	*	*	*k[b-]	*	*
!	!	!	!	!	!	!LO:TX:a:t=Coda,	!	!
[4D\	Re-	.	4r	.	.	4r	.	.
=41	=41	=41	=41	=41	=41	=41	=41	=41
8.D\]	.	.	2r	.	.	2r	.	.
16E-X\	-qui-	.	.	.	.	.	.	.
8D\	-em	.	.	.	.	.	.	.
[8D\	Re-	.	.	.	.	.	.	.
=42	=42	=42	=42	=42	=42	=42	=42	=42
8.D\]	.	.	4r	.	.	4r	.	.
16C#X/	-qui-	.	.	.	.	.	.	.
8D\	-em	.	8r	.	.	8r	.	.
!	!	!	!	!	!	!	!	!LO:DY:a
(8D\	Re-	.	(8F#X/	.	.	(8A/	Re-	<
=43	=43	=43	=43	=43	=43	=43	=43	=43
4.GG/)	.	.	4.G/)	.	.	4.B-\)	.	.
!	!	!	!	!	!	!	!	!LO:DY:a
8BB-/	-qui-	.	8G/	.	.	8d\	-qui-	[ >
=44	=44	=44	=44	=44	=44	=44	=44	=44
!LO:TX:b:t=dnia 6. Lutego 1873 roku	!	!	!	!	!	!	!	!
2D;\	-em.	.	2F#X;/	.	.	2A;/	-em.	]
==	==	==	==	==	==	==	==	==
*-	*-	*-	*-	*-	*-	*-	*-	*-
!!!system-decoration: {s1,s2,s3}
!!!ENC: Kamil Watkowski
!!!END: 2021-08-31
!!!RDF**kern: > = above
!!!RDF**kern: < = below
!!!ENC:Anastazja Marusiak
!!!END:2021-07-30
